packages/foundations/assets/icons/functional/images/business & payment/tickets.svg

<svg xmlns="http://www.w3.org/2000/svg" width="32" height="32" fill="none"><path fill="#1A1C1F" fill-rule="evenodd" d="M13.556 2.621c-.353.174-.516.459-.516.899 0 .405.119.635.445.858l.187.129 6.324.026c6.852.029 6.477.012 6.731.302.276.314.26-.263.26 9.137 0 7.707-.01 8.72-.082 8.894-.111.265-.225.384-.478.5-.185.085-.362.099-1.334.1-.621.001-1.21.026-1.323.058-.265.073-.601.379-.68.619-.151.458.072 1.034.481 1.243.195.099.312.107 1.491.107.721 0 1.403-.025 1.562-.058 1.12-.232 2.06-1.197 2.309-2.37.118-.557.118-17.569 0-18.132a3.06 3.06 0 0 0-.822-1.523c-.43-.429-.824-.659-1.367-.797-.402-.103-.604-.106-6.686-.106h-6.271zM5.295 6.583c-.801.194-1.612.849-1.96 1.583-.366.77-.346.219-.346 9.834 0 7.443.011 8.747.078 9.067a3.08 3.08 0 0 0 2.238 2.345c.479.123 12.911.123 13.39 0a3.08 3.08 0 0 0 2.238-2.345c.067-.32.078-1.624.078-9.067 0-9.615.02-9.064-.346-9.834-.36-.758-1.216-1.43-2.041-1.601-.433-.089-12.955-.072-13.329.018m13.132 2.012c.196.108.36.284.473.509.079.155.087.963.087 8.868 0 7.707-.01 8.72-.082 8.894-.111.265-.225.384-.478.5-.203.094-.511.098-6.427.098s-6.224-.004-6.427-.098c-.253-.116-.367-.235-.478-.5-.072-.174-.082-1.187-.082-8.893 0-8.527.002-8.701.105-8.902.124-.243.381-.472.579-.516.079-.017.167-.039.196-.049.03-.01 2.826-.014 6.214-.009 5.62.009 6.174.017 6.32.098m5.159 8.983c-.427.218-.667.704-.555 1.123.137.512.533.797 1.049.755.518-.043.863-.389.918-.921.028-.275-.149-.628-.425-.849-.251-.199-.709-.249-.987-.108M7.485 22.641c-.251.15-.498.574-.498.852 0 .289.248.705.513.861.508.297 1.11.114 1.375-.417.174-.35.174-.538 0-.887a.976.976 0 0 0-1.39-.409m4 0c-.251.15-.498.574-.498.852 0 .289.248.705.513.861.508.297 1.11.114 1.375-.417.174-.35.174-.538 0-.887a.976.976 0 0 0-1.39-.409m4 0c-.251.15-.498.574-.498.852 0 .289.248.705.513.861.508.297 1.11.114 1.375-.417.076-.153.138-.353.138-.444 0-.283-.248-.704-.503-.854a1.02 1.02 0 0 0-1.025.002"/></svg>

<svg width="32" height="32" viewBox="0 0 32 32" fill="none" xmlns="http://www.w3.org/2000/svg"><path d="M13.556 2.621 C 13.203 2.795,13.040 3.080,13.040 3.520 C 13.040 3.925,13.159 4.155,13.485 4.378 L 13.672 4.507 19.996 4.533 C 26.848 4.562,26.473 4.545,26.727 4.835 C 27.003 5.149,26.987 4.572,26.987 13.972 C 26.987 21.679,26.977 22.692,26.905 22.866 C 26.794 23.131,26.680 23.250,26.427 23.366 C 26.242 23.451,26.065 23.465,25.093 23.466 C 24.472 23.467,23.883 23.492,23.770 23.524 C 23.505 23.597,23.169 23.903,23.090 24.143 C 22.939 24.601,23.162 25.177,23.571 25.386 C 23.766 25.485,23.883 25.493,25.062 25.493 C 25.783 25.493,26.465 25.468,26.624 25.435 C 27.744 25.203,28.684 24.238,28.933 23.065 C 29.051 22.508,29.051 5.496,28.933 4.933 C 28.812 4.359,28.521 3.819,28.111 3.410 C 27.681 2.981,27.287 2.751,26.744 2.613 C 26.342 2.510,26.140 2.507,20.058 2.507 L 13.787 2.507 13.556 2.621 M5.295 6.583 C 4.494 6.777,3.683 7.432,3.335 8.166 C 2.969 8.936,2.989 8.385,2.989 18.000 C 2.989 25.443,3.000 26.747,3.067 27.067 C 3.306 28.208,4.182 29.126,5.305 29.412 C 5.784 29.535,18.216 29.535,18.695 29.412 C 19.818 29.126,20.694 28.208,20.933 27.067 C 21.000 26.747,21.011 25.443,21.011 18.000 C 21.011 8.385,21.031 8.936,20.665 8.166 C 20.305 7.408,19.449 6.736,18.624 6.565 C 18.191 6.476,5.669 6.493,5.295 6.583 M18.427 8.595 C 18.623 8.703,18.787 8.879,18.900 9.104 C 18.979 9.259,18.987 10.067,18.987 17.972 C 18.987 25.679,18.977 26.692,18.905 26.866 C 18.794 27.131,18.680 27.250,18.427 27.366 C 18.224 27.460,17.916 27.464,12.000 27.464 C 6.084 27.464,5.776 27.460,5.573 27.366 C 5.320 27.250,5.206 27.131,5.095 26.866 C 5.023 26.692,5.013 25.679,5.013 17.973 C 5.013 9.446,5.015 9.272,5.118 9.071 C 5.242 8.828,5.499 8.599,5.697 8.555 C 5.776 8.538,5.864 8.516,5.893 8.506 C 5.923 8.496,8.719 8.492,12.107 8.497 C 17.727 8.506,18.281 8.514,18.427 8.595 M23.586 17.578 C 23.159 17.796,22.919 18.282,23.031 18.701 C 23.168 19.213,23.564 19.498,24.080 19.456 C 24.598 19.413,24.943 19.067,24.998 18.535 C 25.026 18.260,24.849 17.907,24.573 17.686 C 24.322 17.487,23.864 17.437,23.586 17.578 M7.485 22.641 C 7.234 22.791,6.987 23.215,6.987 23.493 C 6.987 23.782,7.235 24.198,7.500 24.354 C 8.008 24.651,8.610 24.468,8.875 23.937 C 9.049 23.587,9.049 23.399,8.875 23.050 C 8.614 22.525,7.985 22.341,7.485 22.641 M11.485 22.641 C 11.234 22.791,10.987 23.215,10.987 23.493 C 10.987 23.782,11.235 24.198,11.500 24.354 C 12.008 24.651,12.610 24.468,12.875 23.937 C 13.049 23.587,13.049 23.399,12.875 23.050 C 12.614 22.525,11.985 22.341,11.485 22.641 M15.485 22.641 C 15.234 22.791,14.987 23.215,14.987 23.493 C 14.987 23.782,15.235 24.198,15.500 24.354 C 16.008 24.651,16.610 24.468,16.875 23.937 C 16.951 23.784,17.013 23.584,17.013 23.493 C 17.013 23.210,16.765 22.789,16.510 22.639 C 16.198 22.457,15.791 22.457,15.485 22.641 " fill="#1A1C1F" stroke="none" fill-rule="evenodd"></path></svg>
